X:7
T:Fitzgerald on the Mandolin 
C:Terence "Cuz" Teahan
B:Terry "Cuz" Teahan "Sliabh Luachra on Parade" 1980
Z:Patrick Cavanagh
M:6/8
L:1/8
R:Jig
K:D
| DFA AFA | gfe agf | dBB gBB | ece gfe | 
dfa gfc | bag fed | ege BdB | dgd edB :| 
| dBB GBB | GBd edB | ege BdB | AGE GED | 
DGG BGG | GBd edB | ege BdB | dgd edB :|| 

